svg/fluentui-system-icons/ic_fluent_document_endnote_24_filled.svg

<svg width="24" height="24" viewBox="0 0 24 24" fill="none" xmlns="http://www.w3.org/2000/svg">
<path d="M12 2V8C12 9.10457 12.8954 10 14 10H20V20.5C20 21.3284 19.3284 22 18.5 22H13V14C13 12.8954 12.1046 12 11 12H4V3.5C4 2.67157 4.67157 2 5.5 2H12ZM13.5 2.5V8C13.5 8.27614 13.7239 8.5 14 8.5H19.5L13.5 2.5ZM7.25 17.5C7.25 17.0858 6.91421 16.75 6.5 16.75C6.08579 16.75 5.75 17.0858 5.75 17.5V21C5.75 21.4142 6.08579 21.75 6.5 21.75C6.91421 21.75 7.25 21.4142 7.25 21V17.5ZM7.25 15.25C7.25 15.6642 6.91421 16 6.5 16C6.08579 16 5.75 15.6642 5.75 15.25C5.75 14.8358 6.08579 14.5 6.5 14.5C6.91421 14.5 7.25 14.8358 7.25 15.25ZM4.5 13.75C4.5 14.1642 4.16421 14.5 3.75 14.5H2.5V21.5H3.75C4.16421 21.5 4.5 21.8358 4.5 22.25C4.5 22.6642 4.16421 23 3.75 23H2.5C1.67157 23 1 22.3284 1 21.5V14.5C1 13.6716 1.67157 13 2.5 13H3.75C4.16421 13 4.5 13.3358 4.5 13.75ZM9.25 14.5C8.83579 14.5 8.5 14.1642 8.5 13.75C8.5 13.3358 8.83579 13 9.25 13H10.5C11.3284 13 12 13.6716 12 14.5V21.5C12 22.3284 11.3284 23 10.5 23H9.25C8.83579 23 8.5 22.6642 8.5 22.25C8.5 21.8358 8.83579 21.5 9.25 21.5H10.5V14.5H9.25Z" fill="#212121"/>
</svg>

<svg xmlns="http://www.w3.org/2000/svg" width="24" height="24"><path d="M12 2v6a2 2 0 0 0 2 2h6v10.5a1.5 1.5 0 0 1-1.5 1.5H13v-8a2 2 0 0 0-2-2H4V3.5A1.5 1.5 0 0 1 5.5 2H12Zm1.5.5V8a.5.5 0 0 0 .5.5h5.5l-6-6Zm-6.25 15a.75.75 0 0 0-1.5 0V21a.75.75 0 0 0 1.5 0v-3.5Zm0-2.25a.75.75 0 1 1-1.5 0 .75.75 0 0 1 1.5 0Zm-2.75-1.5a.75.75 0 0 1-.75.75H2.5v7h1.25a.75.75 0 0 1 0 1.5H2.5A1.5 1.5 0 0 1 1 21.5v-7A1.5 1.5 0 0 1 2.5 13h1.25a.75.75 0 0 1 .75.75Zm4.75.75a.75.75 0 0 1 0-1.5h1.25a1.5 1.5 0 0 1 1.5 1.5v7a1.5 1.5 0 0 1-1.5 1.5H9.25a.75.75 0 0 1 0-1.5h1.25v-7H9.25Z"/></svg>
